src/components/UserMenu/exit.svg

<svg width="19" height="18" viewBox="0 0 19 18" fill="none" xmlns="http://www.w3.org/2000/svg">
<g clip-path="url(#clip0)">
<path d="M11.7788 13.0708H13.1844V15.8818C13.1844 17.0443 12.2386 17.99 11.0761 17.99H2.60814C1.44579 17.99 0.5 17.0443 0.5 15.8818V2.10814C0.5 0.945786 1.44579 0 2.60814 0H11.0761C12.2386 0 13.1844 0.945786 13.1844 2.10814V4.91913H11.7788V2.10814C11.7788 1.72073 11.4637 1.40543 11.0761 1.40543H2.60814C2.22073 1.40543 1.90543 1.72073 1.90543 2.10814V15.8818C1.90543 16.2692 2.22073 16.5845 2.60814 16.5845H11.0761C11.4637 16.5845 11.7788 16.2692 11.7788 15.8818V13.0708ZM15.1872 5.68213L14.1934 6.67598L15.8096 8.29234H6.71922V9.69777H15.8096L14.1934 11.314L15.1872 12.3078L18.5 8.99506L15.1872 5.68213Z" fill="#BDBDBD"/>
</g>
<defs>
<clipPath id="clip0">
<rect width="18" height="18" fill="white" transform="translate(0.5)"/>
</clipPath>
</defs>
</svg>

<svg width="19" height="18" fill="none" xmlns="http://www.w3.org/2000/svg"><g clip-path="url(#clip0)"><path d="M11.779 13.07h1.405v2.812a2.11 2.11 0 01-2.108 2.108H2.608A2.11 2.11 0 01.5 15.882V2.108A2.11 2.11 0 012.608 0h8.468a2.11 2.11 0 012.108 2.108V4.92H11.78V2.11a.703.703 0 00-.703-.704H2.608a.704.704 0 00-.703.703v13.774c0 .387.316.702.703.702h8.468a.703.703 0 00.703-.702V13.07zm3.408-7.388l-.994.994 1.617 1.616H6.72v1.406h9.09l-1.617 1.616.994.994L18.5 8.995l-3.313-3.313z" fill="#BDBDBD"/></g><defs><clipPath id="clip0"><path fill="#fff" transform="translate(.5)" d="M0 0h18v18H0z"/></clipPath></defs></svg>
